; generated by Slic3r 0.9.9 on 2015-02-10 at 12:13:05

; layer_height = 0.3
; perimeters = 3
; top_solid_layers = 3
; bottom_solid_layers = 3
; fill_density = 0.3
; perimeter_speed = 30
; infill_speed = 60
; travel_speed = 130
; nozzle_diameter = 0.4
; filament_diameter = 1.75
; extrusion_multiplier = 1
; perimeters extrusion width = 0.42mm
; infill extrusion width = 0.42mm
; solid infill extrusion width = 0.42mm
; top infill extrusion width = 0.42mm
; first layer extrusion width = 0.70mm

G21 ; set units to millimeters
M107
M104 S200 ; set temperature
G28 X0 Y0
G29
M109 S200 ; wait for temperature to be reached
G90 ; use absolute coordinates
G92 E0
M82 ; use absolute distances for extrusion
G1 F1800.000 E-1.00000
G92 E0
G1 Z0.350 F7800.000
G1 X34.760 Y34.960
G1 F1800.000 E1.00000
G1 X35.160 Y34.570 F540.000 E1.05167
G1 X35.820 Y34.050 E1.12939
G1 X36.280 Y33.750 E1.18018
G1 X36.770 Y33.480 E1.23192
G1 X37.030 Y33.360 E1.25841
G1 X37.540 Y33.160 E1.30908
G1 X38.340 Y32.920 E1.38633
G1 X38.890 Y32.810 E1.43821
G1 X39.720 Y32.730 E1.51533
G1 X50.280 Y32.730 E2.49203
G1 X51.110 Y32.810 E2.56916
G1 X51.660 Y32.920 E2.62103
G1 X52.190 Y33.070 E2.67198
G1 X52.720 Y33.260 E2.72406
G1 X53.230 Y33.480 E2.77543
G1 X53.720 Y33.750 E2.82717
G1 X54.180 Y34.050 E2.87797
G1 X54.630 Y34.390 E2.93013
G1 X55.040 Y34.760 E2.98121
G1 X55.430 Y35.160 E3.03288
G1 X55.950 Y35.820 E3.11060
G1 X56.250 Y36.280 E3.16139
G1 X56.520 Y36.770 E3.21314
G1 X56.640 Y37.030 E3.23962
G1 X56.840 Y37.540 E3.29029
G1 X57.080 Y38.340 E3.36754
G1 X57.190 Y38.890 E3.41942
G1 X57.270 Y39.720 E3.49654
G1 X57.270 Y50.280 E4.47325
G1 X57.190 Y51.110 E4.55037
G1 X57.080 Y51.660 E4.60225
G1 X56.930 Y52.190 E4.65319
G1 X56.740 Y52.720 E4.70527
G1 X56.520 Y53.230 E4.75664
G1 X56.250 Y53.720 E4.80838
G1 X55.950 Y54.180 E4.85918
G1 X55.610 Y54.630 E4.91134
G1 X55.240 Y55.040 E4.96242
G1 X54.840 Y55.430 E5.01410
G1 X54.180 Y55.950 E5.09181
G1 X53.720 Y56.250 E5.14260
G1 X53.230 Y56.520 E5.19435
G1 X52.970 Y56.640 E5.22083
G1 X52.460 Y56.840 E5.27150
G1 X51.660 Y57.080 E5.34875
G1 X51.110 Y57.190 E5.40063
G1 X50.280 Y57.270 E5.47775
G1 X39.720 Y57.270 E6.45446
G1 X38.890 Y57.190 E6.53158
G1 X38.340 Y57.080 E6.58346
G1 X37.810 Y56.930 E6.63440
G1 X37.280 Y56.740 E6.68648
G1 X36.770 Y56.520 E6.73785
G1 X36.280 Y56.250 E6.78960
G1 X35.820 Y55.950 E6.84039
G1 X35.370 Y55.610 E6.89256
G1 X34.960 Y55.240 E6.94364
G1 X34.570 Y54.840 E6.99531
G1 X34.050 Y54.180 E7.07302
G1 X33.750 Y53.720 E7.12382
G1 X33.480 Y53.230 E7.17556
G1 X33.360 Y52.970 E7.20205
G1 X33.160 Y52.460 E7.25271
G1 X32.920 Y51.660 E7.32997
G1 X32.810 Y51.110 E7.38184
G1 X32.730 Y50.280 E7.45897
G1 X32.730 Y39.720 E8.43567
G1 X32.810 Y38.890 E8.51279
G1 X32.920 Y38.340 E8.56467
G1 X33.070 Y37.810 E8.61562
G1 X33.260 Y37.280 E8.66769
G1 X33.480 Y36.770 E8.71906
G1 X33.750 Y36.280 E8.77081
G1 X34.050 Y35.820 E8.82160
G1 X34.390 Y35.370 E8.87377
G1 X34.694 Y35.029 E8.91603
G1 X35.210 Y35.400 F7800.000
G1 X35.800 Y34.860 F540.000 E8.99001
G1 X36.230 Y34.540 E9.03958
G1 X36.680 Y34.250 E9.08910
G1 X37.400 Y33.900 E9.16314
G1 X38.150 Y33.630 E9.23687
G1 X38.670 Y33.500 E9.28645
G1 X39.200 Y33.410 E9.33617
G1 X40.000 Y33.360 E9.41031
G1 X50.000 Y33.360 E10.33521
G1 X50.800 Y33.410 E10.40935
G1 X51.330 Y33.500 E10.45907
G1 X51.850 Y33.630 E10.50865
G1 X52.350 Y33.800 E10.55749
G1 X53.080 Y34.120 E10.63122
G1 X53.320 Y34.250 E10.65646
G1 X53.770 Y34.540 E10.70598
G1 X54.200 Y34.860 E10.75555
G1 X54.600 Y35.210 E10.80471
G1 X55.140 Y35.800 E10.87869
G1 X55.460 Y36.230 E10.92826
G1 X55.750 Y36.680 E10.97778
G1 X56.100 Y37.400 E11.05182
G1 X56.370 Y38.150 E11.12555
G1 X56.500 Y38.670 E11.17512
G1 X56.590 Y39.200 E11.22485
G1 X56.640 Y40.000 E11.29898
G1 X56.640 Y50.000 E12.22389
G1 X56.590 Y50.800 E12.29803
G1 X56.500 Y51.330 E12.34775
G1 X56.370 Y51.850 E12.39733
G1 X56.200 Y52.350 E12.44617
G1 X55.880 Y53.080 E12.51989
G1 X55.750 Y53.320 E12.54514
G1 X55.460 Y53.770 E12.59465
G1 X55.140 Y54.200 E12.64423
G1 X54.790 Y54.600 E12.69339
G1 X54.200 Y55.140 E12.76736
G1 X53.770 Y55.460 E12.81694
G1 X53.320 Y55.750 E12.86645
G1 X52.600 Y56.100 E12.94050
G1 X51.850 Y56.370 E13.01422
G1 X51.330 Y56.500 E13.06380
G1 X50.800 Y56.590 E13.11352
G1 X50.000 Y56.640 E13.18766
G1 X40.000 Y56.640 E14.11257
G1 X39.200 Y56.590 E14.18671
G1 X38.670 Y56.500 E14.23643
G1 X38.150 Y56.370 E14.28600
G1 X37.650 Y56.200 E14.33485
G1 X36.920 Y55.880 E14.40857
G1 X36.680 Y55.750 E14.43381
G1 X36.230 Y55.460 E14.48333
G1 X35.800 Y55.140 E14.53291
G1 X35.400 Y54.790 E14.58206
G1 X34.860 Y54.200 E14.65604
G1 X34.540 Y53.770 E14.70562
G1 X34.250 Y53.320 E14.75513
G1 X33.900 Y52.600 E14.82918
G1 X33.630 Y51.850 E14.90290
G1 X33.500 Y51.330 E14.95248
G1 X33.410 Y50.800 E15.00220
G1 X33.360 Y50.000 E15.07634
G1 X33.360 Y40.000 E16.00125
G1 X33.410 Y39.200 E16.07538
G1 X33.500 Y38.670 E16.12510
G1 X33.630 Y38.150 E16.17468
G1 X33.800 Y37.650 E16.22353
G1 X34.120 Y36.920 E16.29725
G1 X34.250 Y36.680 E16.32249
G1 X34.540 Y36.230 E16.37201
G1 X34.860 Y35.800 E16.42158
G1 X35.146 Y35.471 E16.46192
G1 F1800.000 E15.46192
G92 E0
G1 X41.589 Y41.589 F7800.000
G1 F1800.000 E1.00000
G1 X48.411 Y41.589 F540.000 E1.63096
G1 X48.411 Y48.411 E2.26193
G1 X41.589 Y48.411 E2.89289
G1 X41.589 Y41.684 E3.51504
G1 X40.953 Y40.953 F7800.000
G1 X49.047 Y40.953 F540.000 E4.26358
G1 X49.047 Y49.047 E5.01212
G1 X40.953 Y49.047 E5.76067
G1 X40.953 Y41.049 E6.50039
G1 X40.318 Y40.318 F7800.000
G1 X49.682 Y40.318 F540.000 E7.36651
G1 X49.682 Y49.682 E8.23263
G1 X40.318 Y49.682 E9.09875
G1 X40.318 Y40.413 E9.95605
G1 X40.868 Y40.636 F7800.000
G1 X47.950 Y42.050
G1 X47.042 Y42.050 F1080.000 E10.04086
G1 X47.950 Y42.958 E10.16078
G1 X47.950 Y43.865 E10.24556
G1 X46.135 Y42.050 E10.48539
G1 X45.227 Y42.050 E10.57018
G1 X47.950 Y44.773 E10.92990
G1 X47.950 Y45.681 E11.01469
G1 X44.319 Y42.050 E11.49432
G1 X43.411 Y42.050 E11.57910
G1 X47.950 Y46.589 E12.17863
G1 X47.950 Y47.496 E12.26341
G1 X42.504 Y42.050 E12.98285
G1 X42.050 Y42.504 E13.04280
G1 X47.496 Y47.950 E13.76223
G1 X46.589 Y47.950 E13.84701
G1 X42.050 Y43.411 E14.44655
G1 X42.050 Y44.319 E14.53133
G1 X45.681 Y47.950 E15.01096
G1 X44.773 Y47.950 E15.09574
G1 X42.050 Y45.227 E15.45547
G1 X42.050 Y46.135 E15.54026
G1 X43.865 Y47.950 E15.78008
G1 X42.958 Y47.950 E15.86487
G1 X42.050 Y47.042 E15.98480
G1 X42.050 Y47.950 E16.06960
M106 S255
G1 F1800.000 E15.06960
G92 E0
G1 Z0.650 F7800.000
G1 X40.239 Y42.187
G1 F1800.000 E1.00000
G1 X40.288 Y49.712 F600.000 E1.39311
G1 X49.712 Y49.712 E1.88542
G1 X49.712 Y40.288 E2.37774
G1 X40.312 Y40.274 E2.86880
G1 X40.240 Y40.521 E2.88223
G1 X40.239 Y42.187 E2.96930
G1 F1800.000 E1.96930
G92 E0
G1 Z0.950 F7800.000
G1 X40.239 Y42.187
G1 F1800.000 E1.00000
G1 X40.288 Y49.712 F600.000 E1.39311
G1 X49.712 Y49.712 E1.88542
G1 X49.712 Y40.288 E2.37774
G1 X40.312 Y40.274 E2.86880
G1 X40.240 Y40.521 E2.88223
G1 X40.239 Y42.187 E2.96930
G1 F1800.000 E1.96930
G92 E0
G1 Z1.250 F7800.000
G1 X40.239 Y42.187
G1 F1800.000 E1.00000
G1 X40.288 Y49.712 F600.000 E1.39311
G1 X49.712 Y49.712 E1.88542
G1 X49.712 Y40.288 E2.37774
G1 X40.312 Y40.274 E2.86880
G1 X40.240 Y40.521 E2.88223
G1 X40.239 Y42.187 E2.96930
G1 F1800.000 E1.96930
G92 E0
G1 Z1.550 F7800.000
G1 X40.239 Y42.187
G1 F1800.000 E1.00000
G1 X40.288 Y49.712 F600.000 E1.39311
G1 X49.712 Y49.712 E1.88542
G1 X49.712 Y40.288 E2.37774
G1 X40.312 Y40.274 E2.86880
G1 X40.240 Y40.521 E2.88223
G1 X40.239 Y42.187 E2.96930
G1 F1800.000 E1.96930
G92 E0
G1 Z1.850 F7800.000
G1 X40.239 Y42.187
G1 F1800.000 E1.00000
G1 X40.288 Y49.712 F600.000 E1.39311
G1 X49.712 Y49.712 E1.88542
G1 X49.712 Y40.288 E2.37774
G1 X40.312 Y40.274 E2.86880
G1 X40.240 Y40.521 E2.88223
G1 X40.239 Y42.187 E2.96930
G1 F1800.000 E1.96930
G92 E0
G1 Z2.150 F7800.000
G1 X40.239 Y42.187
G1 F1800.000 E1.00000
G1 X40.288 Y49.712 F600.000 E1.39311
G1 X49.712 Y49.712 E1.88542
G1 X49.712 Y40.288 E2.37774
G1 X40.312 Y40.274 E2.86880
G1 X40.240 Y40.521 E2.88223
G1 X40.239 Y42.187 E2.96930
G1 F1800.000 E1.96930
G92 E0
G1 Z2.450 F7800.000
G1 X40.239 Y42.187
G1 F1800.000 E1.00000
G1 X40.288 Y49.712 F600.000 E1.39311
G1 X49.712 Y49.712 E1.88542
G1 X49.712 Y40.288 E2.37774
G1 X40.312 Y40.274 E2.86880
G1 X40.240 Y40.521 E2.88223
G1 X40.239 Y42.187 E2.96930
G1 F1800.000 E1.96930
G92 E0
G1 Z2.750 F7800.000
G1 X40.239 Y42.187
G1 F1800.000 E1.00000
G1 X40.288 Y49.712 F600.000 E1.39311
G1 X49.712 Y49.712 E1.88542
G1 X49.712 Y40.288 E2.37774
G1 X40.312 Y40.274 E2.86880
G1 X40.240 Y40.521 E2.88223
G1 X40.239 Y42.187 E2.96930
G1 F1800.000 E1.96930
G92 E0
G1 Z3.050 F7800.000
G1 X40.239 Y42.187
G1 F1800.000 E1.00000
G1 X40.288 Y49.712 F600.000 E1.39311
G1 X49.712 Y49.712 E1.88542
G1 X49.712 Y40.288 E2.37774
G1 X40.312 Y40.274 E2.86880
G1 X40.240 Y40.521 E2.88223
G1 X40.239 Y42.187 E2.96930
G1 F1800.000 E1.96930
G92 E0
G1 Z3.350 F7800.000
G1 X40.239 Y42.187
G1 F1800.000 E1.00000
G1 X40.288 Y49.712 F600.000 E1.39311
G1 X49.712 Y49.712 E1.88542
G1 X49.712 Y40.288 E2.37774
G1 X40.312 Y40.274 E2.86880
G1 X40.240 Y40.521 E2.88223
G1 X40.239 Y42.187 E2.96930
G1 F1800.000 E1.96930
G92 E0
G1 Z3.650 F7800.000
G1 X40.239 Y42.187
G1 F1800.000 E1.00000
G1 X40.288 Y49.712 F600.000 E1.39311
G1 X49.712 Y49.712 E1.88542
G1 X49.712 Y40.288 E2.37774
G1 X40.312 Y40.274 E2.86880
G1 X40.240 Y40.521 E2.88223
G1 X40.239 Y42.187 E2.96930
G1 F1800.000 E1.96930
G92 E0
G1 Z3.950 F7800.000
G1 X40.239 Y42.187
G1 F1800.000 E1.00000
G1 X40.288 Y49.712 F600.000 E1.39311
G1 X49.712 Y49.712 E1.88542
G1 X49.712 Y40.288 E2.37774
G1 X40.312 Y40.274 E2.86880
G1 X40.240 Y40.521 E2.88223
G1 X40.239 Y42.187 E2.96930
G1 F1800.000 E1.96930
G92 E0
G1 Z4.250 F7800.000
G1 X40.239 Y42.187
G1 F1800.000 E1.00000
G1 X40.288 Y49.712 F600.000 E1.39311
G1 X49.712 Y49.712 E1.88542
G1 X49.712 Y40.288 E2.37774
G1 X40.312 Y40.274 E2.86880
G1 X40.240 Y40.521 E2.88223
G1 X40.239 Y42.187 E2.96930
G1 F1800.000 E1.96930
G92 E0
G1 Z4.550 F7800.000
G1 X40.239 Y42.187
G1 F1800.000 E1.00000
G1 X40.288 Y49.712 F600.000 E1.39311
G1 X49.712 Y49.712 E1.88542
G1 X49.712 Y40.288 E2.37774
G1 X40.312 Y40.274 E2.86880
G1 X40.240 Y40.521 E2.88223
G1 X40.239 Y42.187 E2.96930
G1 F1800.000 E1.96930
G92 E0
G1 Z4.850 F7800.000
G1 X40.239 Y42.187
G1 F1800.000 E1.00000
G1 X40.288 Y49.712 F600.000 E1.39311
G1 X49.712 Y49.712 E1.88542
G1 X49.712 Y40.288 E2.37774
G1 X40.312 Y40.274 E2.86880
G1 X40.240 Y40.521 E2.88223
G1 X40.239 Y42.187 E2.96930
G1 F1800.000 E1.96930
G92 E0
G1 Z5.150 F7800.000
G1 X40.239 Y42.187
G1 F1800.000 E1.00000
G1 X40.288 Y49.712 F600.000 E1.39311
G1 X49.712 Y49.712 E1.88542
G1 X49.712 Y40.288 E2.37774
G1 X40.312 Y40.274 E2.86880
G1 X40.240 Y40.521 E2.88223
G1 X40.239 Y42.187 E2.96930
G1 F1800.000 E1.96930
G92 E0
G1 Z5.450 F7800.000
G1 X40.239 Y42.187
G1 F1800.000 E1.00000
G1 X40.288 Y49.712 F600.000 E1.39311
G1 X49.712 Y49.712 E1.88542
G1 X49.712 Y40.288 E2.37774
G1 X40.312 Y40.274 E2.86880
G1 X40.240 Y40.521 E2.88223
G1 X40.239 Y42.187 E2.96930
G1 F1800.000 E1.96930
G92 E0
G1 Z5.750 F7800.000
G1 X40.239 Y42.187
G1 F1800.000 E1.00000
G1 X40.288 Y49.712 F600.000 E1.39311
G1 X49.712 Y49.712 E1.88542
G1 X49.712 Y40.288 E2.37774
G1 X40.312 Y40.274 E2.86880
G1 X40.240 Y40.521 E2.88223
G1 X40.239 Y42.187 E2.96930
G1 F1800.000 E1.96930
G92 E0
G1 Z6.050 F7800.000
G1 X40.239 Y42.187
G1 F1800.000 E1.00000
G1 X40.288 Y49.712 F600.000 E1.39311
G1 X49.712 Y49.712 E1.88542
G1 X49.712 Y40.288 E2.37774
G1 X40.312 Y40.274 E2.86880
G1 X40.240 Y40.521 E2.88223
G1 X40.239 Y42.187 E2.96930
G1 F1800.000 E1.96930
G92 E0
G1 Z6.350 F7800.000
G1 X40.239 Y42.187
G1 F1800.000 E1.00000
G1 X40.288 Y49.712 F600.000 E1.39311
G1 X49.712 Y49.712 E1.88542
G1 X49.712 Y40.288 E2.37774
G1 X40.312 Y40.274 E2.86880
G1 X40.240 Y40.521 E2.88223
G1 X40.239 Y42.187 E2.96930
G1 F1800.000 E1.96930
G92 E0
G1 Z6.650 F7800.000
G1 X40.239 Y42.187
G1 F1800.000 E1.00000
G1 X40.288 Y49.712 F600.000 E1.39311
G1 X49.712 Y49.712 E1.88542
G1 X49.712 Y40.288 E2.37774
G1 X40.312 Y40.274 E2.86880
G1 X40.240 Y40.521 E2.88223
G1 X40.239 Y42.187 E2.96930
G1 F1800.000 E1.96930
G92 E0
G1 Z6.950 F7800.000
G1 X40.239 Y42.187
G1 F1800.000 E1.00000
G1 X40.288 Y49.712 F600.000 E1.39311
G1 X49.712 Y49.712 E1.88542
G1 X49.712 Y40.288 E2.37774
G1 X40.312 Y40.274 E2.86880
G1 X40.240 Y40.521 E2.88223
G1 X40.239 Y42.187 E2.96930
G1 F1800.000 E1.96930
G92 E0
G1 Z7.250 F7800.000
G1 X40.239 Y42.187
G1 F1800.000 E1.00000
G1 X40.288 Y49.712 F600.000 E1.39311
G1 X49.712 Y49.712 E1.88542
G1 X49.712 Y40.288 E2.37774
G1 X40.312 Y40.274 E2.86880
G1 X40.240 Y40.521 E2.88223
G1 X40.239 Y42.187 E2.96930
G1 F1800.000 E1.96930
G92 E0
G1 Z7.550 F7800.000
G1 X40.239 Y42.187
G1 F1800.000 E1.00000
G1 X40.288 Y49.712 F600.000 E1.39311
G1 X49.712 Y49.712 E1.88542
G1 X49.712 Y40.288 E2.37774
G1 X40.312 Y40.274 E2.86880
G1 X40.240 Y40.521 E2.88223
G1 X40.239 Y42.187 E2.96930
G1 F1800.000 E1.96930
G92 E0
G1 Z7.850 F7800.000
G1 X40.239 Y42.187
G1 F1800.000 E1.00000
G1 X40.288 Y49.712 F600.000 E1.39311
G1 X49.712 Y49.712 E1.88542
G1 X49.712 Y40.288 E2.37774
G1 X40.312 Y40.274 E2.86880
G1 X40.240 Y40.521 E2.88223
G1 X40.239 Y42.187 E2.96930
G1 F1800.000 E1.96930
G92 E0
G1 Z8.150 F7800.000
G1 X40.239 Y42.187
G1 F1800.000 E1.00000
G1 X40.288 Y49.712 F600.000 E1.39311
G1 X49.712 Y49.712 E1.88542
G1 X49.712 Y40.288 E2.37774
G1 X40.312 Y40.274 E2.86880
G1 X40.240 Y40.521 E2.88223
G1 X40.239 Y42.187 E2.96930
G1 F1800.000 E1.96930
G92 E0
G1 Z8.450 F7800.000
G1 X40.239 Y42.187
G1 F1800.000 E1.00000
G1 X40.288 Y49.712 F600.000 E1.39311
G1 X49.712 Y49.712 E1.88542
G1 X49.712 Y40.288 E2.37774
G1 X40.312 Y40.274 E2.86880
G1 X40.240 Y40.521 E2.88223
G1 X40.239 Y42.187 E2.96930
G1 F1800.000 E1.96930
G92 E0
G1 Z8.750 F7800.000
G1 X40.239 Y42.187
G1 F1800.000 E1.00000
G1 X40.288 Y49.712 F600.000 E1.39311
G1 X49.712 Y49.712 E1.88542
G1 X49.712 Y40.288 E2.37774
G1 X40.312 Y40.274 E2.86880
G1 X40.240 Y40.521 E2.88223
G1 X40.239 Y42.187 E2.96930
G1 F1800.000 E1.96930
G92 E0
G1 Z9.050 F7800.000
G1 X40.239 Y42.187
G1 F1800.000 E1.00000
G1 X40.288 Y49.712 F600.000 E1.39311
G1 X49.712 Y49.712 E1.88542
G1 X49.712 Y40.288 E2.37774
G1 X40.312 Y40.274 E2.86880
G1 X40.240 Y40.521 E2.88223
G1 X40.239 Y42.187 E2.96930
G1 F1800.000 E1.96930
G92 E0
G1 Z9.350 F7800.000
G1 X40.239 Y42.187
G1 F1800.000 E1.00000
G1 X40.288 Y49.712 F600.000 E1.39311
G1 X49.712 Y49.712 E1.88542
G1 X49.712 Y40.288 E2.37774
G1 X40.312 Y40.274 E2.86880
G1 X40.240 Y40.521 E2.88223
G1 X40.239 Y42.187 E2.96930
G1 F1800.000 E1.96930
G92 E0
G1 Z9.650 F7800.000
G1 X41.047 Y41.047
G1 F1800.000 E1.00000
G1 X48.953 Y41.047 F600.000 E1.41303
G1 X48.953 Y48.953 E1.82605
G1 X41.047 Y48.953 E2.23908
G1 X41.047 Y41.110 E2.64883
G1 X40.628 Y40.628 F7800.000
G1 X49.372 Y40.628 F600.000 E3.10562
G1 X49.372 Y49.372 E3.56242
G1 X40.628 Y49.372 E4.01922
G1 X40.628 Y40.691 E4.47273
G1 X40.209 Y40.209 F7800.000
G1 X49.791 Y40.209 F600.000 E4.97329
G1 X49.791 Y49.791 E5.47386
G1 X40.209 Y49.791 E5.97442
G1 X40.209 Y40.272 E6.47171
G1 X40.572 Y40.419 F7800.000
G1 X48.649 Y41.423
M106 S255
G1 X41.351 Y41.423 F3600.000 E6.85300
G1 X41.351 Y41.738 E6.86942
G1 X48.649 Y41.738 E7.25071
G1 X48.649 Y42.052 E7.26713
G1 X41.351 Y42.052 E7.64842
G1 X41.351 Y42.366 E7.66484
G1 X48.649 Y42.366 E8.04613
G1 X48.649 Y42.680 E8.06255
G1 X41.351 Y42.680 E8.44384
G1 X41.351 Y42.994 E8.46026
G1 X48.649 Y42.994 E8.84156
G1 X48.649 Y43.308 E8.85797
G1 X41.351 Y43.308 E9.23927
G1 X41.351 Y43.623 E9.25568
G1 X48.649 Y43.623 E9.63698
G1 X48.649 Y43.937 E9.65339
G1 X41.351 Y43.937 E10.03469
G1 X41.351 Y44.251 E10.05110
G1 X48.649 Y44.251 E10.43240
G1 X48.649 Y44.565 E10.44881
G1 X41.351 Y44.565 E10.83011
G1 X41.351 Y44.879 E10.84652
G1 X48.649 Y44.879 E11.22782
G1 X48.649 Y45.193 E11.24423
G1 X41.351 Y45.193 E11.62553
G1 X41.351 Y45.508 E11.64194
G1 X48.649 Y45.508 E12.02324
G1 X48.649 Y45.822 E12.03965
G1 X41.351 Y45.822 E12.42095
G1 X41.351 Y46.136 E12.43736
G1 X48.649 Y46.136 E12.81866
G1 X48.649 Y46.450 E12.83507
G1 X41.351 Y46.450 E13.21637
G1 X41.351 Y46.764 E13.23278
G1 X48.649 Y46.764 E13.61408
G1 X48.649 Y47.078 E13.63049
G1 X41.351 Y47.078 E14.01179
